X:7
T:Luna Amorosa
C:Henry of Maldon
M:6/8
L:1/8
P:AA BB CC x3
K:G
P:A
d | d>ed f2e | d2B c2e | d2B c>BA | [1 B3 B2 :| [2 B3 B3 |: \
P:B
 e>de c>de | d>cd B>cd 
| c>Bc ABc | | d2B d2d :: \
P:C
c2 B d>cB | A2G B>AG | A2F G2A | [1 B3 B3 :| [2 B3 B2 |]

